X:1020
T:Knockandoe's Strathspey.
M:C|
L:1/8
Q:1/4=120
I: :: ::
N:initial repeat bar added
Z:Jack Campin * www.campin.me.uk * 2009
K:A Minor
A|:c>AG>E G/G/G G2|cA`AG  A/A/A A2|c>de>g e>dc>d|e>cg>c A/A/A A2:|
   g>ag>f g/g/g g2|a>ba>g a/a/a a2|g>ae>g d>eg>d|ec`gc  A/A/A A2:|
<end>
<start>
